X:305
T: ACH MANN DU SOLLST NACH HAUSE KOMMN
N: E0910A
O: Europa, Mitteleuropa, Deutschland
R: Ehestands - Lied
M: 2/4
L: 1/16
K: G
D2 | G3AB2G2 | E2C2C4 |
c2c2A2F2 | G4z2
D2 | G3AB2G2 | E2C2C4 |
c2c2A2F2 | G4z4 |
B3dd2c2 | c2B2B4 |
d2d2edcB | A2D2D2z
A | B2B2A2A2 | G3Bd2
c2 | B2B2A2A2 | G4z2

@@@ Tune index: 4618
